build/svg/cmd/sc_watermark.svg

<?xml version="1.0" encoding="UTF-8" standalone="no"?>
<svg
   xmlns:dc="http://purl.org/dc/elements/1.1/"
   xmlns:cc="http://creativecommons.org/ns#"
   xmlns:rdf="http://www.w3.org/1999/02/22-rdf-syntax-ns#"
   xmlns:svg="http://www.w3.org/2000/svg"
   xmlns="http://www.w3.org/2000/svg"
   xmlns:sodipodi="http://sodipodi.sourceforge.net/DTD/sodipodi-0.dtd"
   xmlns:inkscape="http://www.inkscape.org/namespaces/inkscape"
   viewBox="0 0 16 16"
   version="1.1"
   id="svg6"
   sodipodi:docname="sc_watermark.svg"
   inkscape:version="0.92.5 (2060ec1f9f, 2020-04-08)"
   inkscape:export-filename="/home/jupiter007/Libreoffice yaru theme fullcolor/build/cmd/sc_watermark.png"
   inkscape:export-xdpi="95"
   inkscape:export-ydpi="95"><metadata
   id="metadata12">
  <rdf:RDF>
    <cc:Work
       rdf:about="">
      <dc:format>image/svg+xml</dc:format>
      <dc:type
         rdf:resource="http://purl.org/dc/dcmitype/StillImage" />
    </cc:Work>
  </rdf:RDF>
</metadata>
<defs
   id="defs10" />
<sodipodi:namedview
   pagecolor="#ffffff"
   bordercolor="#666666"
   borderopacity="1"
   objecttolerance="10"
   gridtolerance="10"
   guidetolerance="10"
   inkscape:pageopacity="0"
   inkscape:pageshadow="2"
   inkscape:window-width="1920"
   inkscape:window-height="1011"
   id="namedview8"
   showgrid="true"
   inkscape:zoom="41.7193"
   inkscape:cx="0.7727977"
   inkscape:cy="4.6671926"
   inkscape:window-x="0"
   inkscape:window-y="32"
   inkscape:window-maximized="1"
   inkscape:current-layer="svg6">
  <inkscape:grid
     type="xygrid"
     id="grid816" />
</sodipodi:namedview>

/&amp;gt;<path
   sodipodi:nodetypes="cccscsccccccccscscccccc"
   inkscape:connector-curvature="0"
   id="path4237-1"
   d="M 4.9946161,1 C 3.736416,1.0145 2.815725,0.9694 2.062975,1.384766 1.686605,1.5924259 1.389744,1.9441519 1.225084,2.3828119 1.060414,2.8214819 1.000475,3.3423999 1.000475,4 V 5.488281 12 c 0,0.657609 0.0599,1.178577 0.224609,1.617189 0.16468,0.43861 0.461531,0.788523 0.837891,0.996092 0.75272,0.415131 1.6735411,0.37165 2.9316411,0.386719 h 0.002 6.0048589 0.0039 c 1.25819,-0.0145 2.178891,0.0306 2.931641,-0.384766 0.37637,-0.20766 0.673221,-0.559386 0.837891,-0.998045 C 14.939446,13.178518 14.999525,12.657609 14.999525,12 V 5.466797 4 c 0,-0.6576001 -0.0599,-1.1785771 -0.224609,-1.6171881 C 14.610236,1.9442129 14.313385,1.5942789 13.937025,1.386719 13.184255,0.971589 12.263424,1.01508 11.005334,1 h -0.002 -6.0048589 z"
   style="font-style:normal;font-variant:normal;font-weight:normal;font-stretch:normal;font-size:15px;line-height:125%;font-family:Ubuntu;-inkscape-font-specification:Ubuntu;text-align:center;letter-spacing:0px;word-spacing:0px;writing-mode:lr-tb;text-anchor:middle;display:inline;opacity:0.6;fill:#000000;fill-opacity:1;stroke:none;stroke-width:0.99980211" />
<path
   inkscape:connector-curvature="0"
   id="path1993"
   d="m 5.9828441,2.0271849 c -1.556581,0.0108 -1.10899,-0.01175 -2.6589411,0.03877 -0.461229,0.04267 -1.016188,0.206419 -1.15534,0.709967 -0.218994,0.635346 -0.108414,1.3337871 -0.145796,1.9819241 -0.0078,2.297084 -0.02297,5.595846 0.02152,7.885197 0.0391,0.461929 0.202551,1.012665 0.698756,1.163665 0.632456,0.225083 1.2841441,0.12274 1.9359741,0.154299 1.424235,0.0068 0.849563,0.01102 2.27542,0.01131 1.7045309,3.49e-4 3.4083879,-0.005 5.1071899,-0.01851 0.511911,-0.01201 1.183699,0.01993 1.584745,-0.405192 0.421097,-0.539783 0.287073,-1.268021 0.322745,-1.903787 0.01187,-2.444322 0.02769,-5.910512 -0.0219,-8.3562111 -0.04928,-0.40204 -0.169992,-0.862952 -0.575139,-1.044475 -0.668169,-0.294097 -1.426205,-0.168019 -2.125921,-0.205572 -1.754407,-0.0118 -3.5088739,-0.01249 -5.2633129,-0.01139 z"
   style="opacity:1;vector-effect:none;fill:#ffffff;fill-opacity:1;stroke:none;stroke-width:1;stroke-linecap:round;stroke-linejoin:bevel;stroke-miterlimit:4;stroke-dasharray:none;stroke-dashoffset:0;stroke-opacity:1"
   sodipodi:nodetypes="cccccccscccccccc" />
<path
   d="M 10.420474,4.9765534 9.6865934,8.5052756 8.5799111,5 H 7.4357141 L 6.3266872,8.5099649 5.5951514,4.9976554 4.418129,5.2415006 5.618598,11 H 6.797965 L 8.0078126,7.1711607 9.2176602,11 h 1.1793668 l 1.200468,-5.7796013 z"
   id="path4"
   inkscape:connector-curvature="0"
   style="fill:#762572;fill-rule:evenodd;stroke-width:1.2004689" />
</svg>

<svg xmlns="http://www.w3.org/2000/svg" viewBox="0 0 16 16">/&amp;gt;<path d="M4.995 1c-1.259.014-2.18-.03-2.932.385a1.88 1.88 0 00-.838.998C1.06 2.82 1 3.343 1 4v8c0 .658.06 1.179.225 1.617.165.439.462.789.838.996.753.415 1.674.372 2.932.387H11.005c1.259-.015 2.18.03 2.932-.385a1.88 1.88 0 00.838-.998c.164-.438.225-.96.225-1.617V4c0-.658-.06-1.179-.225-1.617a1.875 1.875 0 00-.838-.996c-.753-.415-1.674-.372-2.932-.387H4.998z" style="line-height:125%;-inkscape-font-specification:Ubuntu;text-align:center" font-weight="400" font-size="15" font-family="Ubuntu" letter-spacing="0" word-spacing="0" text-anchor="middle" opacity=".6"/><path d="M5.983 2.027c-1.557.011-1.11-.012-2.66.039-.46.043-1.015.206-1.154.71-.22.635-.109 1.334-.146 1.982-.008 2.297-.023 5.596.021 7.885.04.462.203 1.013.699 1.164.632.225 1.284.122 1.936.154 1.424.007.85.011 2.275.011 1.705 0 3.409-.005 5.108-.018.512-.012 1.183.02 1.584-.405.421-.54.287-1.268.323-1.904.012-2.444.028-5.91-.022-8.356-.05-.402-.17-.863-.575-1.045-.668-.294-1.426-.168-2.126-.205a715.83 715.83 0 00-5.263-.012z" fill="#fff"/><path d="M10.42 4.977l-.733 3.528L8.58 5H7.436l-1.11 3.51-.73-3.512-1.178.244L5.618 11h1.18l1.21-3.829L9.218 11h1.179l1.2-5.78z" fill="#762572" fill-rule="evenodd"/></svg>
